X:88
T:No Count Know How
C:copyright (c) 2004 R. S. Doiel, all rights reserved.
M:4/4
L:1/8
Q:1/4=180
V:1 name="D Whistle"
%%MIDI program 1 72 % Whistle
K:D
|: Bcd2 def2 | fgab  abag | fed2 fedc | BAGA  GABc | d4 GABc :|
V:2 name="Low D Whistle"
%%MIDI program 2 72 % Acoustic Guitar (nylon)
I: octave=-1
K:D
|: z4 Bcd2 | def2 fgab | abag fed2 | fedc BAGA | GABc G4 :|
V:1
e2 ee d2 dd | A8 | e2 ee d2 dd | A8 |
e2 ee d2 dd | A8 | f2 f2 gg g2 | c3 z cB_B2 |
f2 f2 gg g2 | c3 z cB_B2 || Bcd2 def2 | fgab  abag | 
fed2 fedc | BAGA  GABc | d4 cBFG | d8 ||
V:2
E4  D4 | A4 ABcd | E4 D4 | A4 agef |
efag  D4 | A4 aeae | Ffed GcBG | cgcg c2bc |
Ffed GcBG | cgcg fedc || cBA2 Bcd2 | def2 fgab |
abag fed2 | fedc BAGA | GABc G4 | D8 ||








%%newpage

%% Index goes here.
%%begintext
Ace & Deuce Of Pipering, The - 17
Alewoman, The - 42
Amhr\'an A Leabhair - 5
Amhran Dochais & C\'ait Ni Dhuibhir - 1
An Draigean Donn - 3
An Irish Lullaby - 51
An Pioba ar an larta - 85
An tAthair \'O Floinn - 16
August with seven winds - 49
Banish Misfortune - 20
Barley Grain, The - 36
Bean Na Lionna - 42
Bill Clancy's Delight - 6
Blackthorn Stick, The - 3
Blarney Pilgrim, The - 26
Bog Blossom, The - 35
Boil your breakfast early - 53
Bonnie Bunch of Roses, The - 37
Boys of Wexford, The - 33
Bucks of Westmeath, The - 21
Burn's Farwell - 60
Burning the Piper's Hut - 2
Burnt Old Man, The - 52
Butterfly, The - 70
Captian Hugh Fitzgerld - 84
Castle of Dromore, The - 30
Charming Fair Maid, The - 59
Christie Blacktoast - 66
Church of Dromore, The - 61
Cliffs of Moher, The - 63
Connaught Mans Rambles - 74
Doctor O'Neill - 82
Fairy Queen, The - 9
Farewell to my Troubles - 19
Fasu Groove, The - 48
Father O'Flynn - 16
Fill the Cup - 54
Fish You Said - 47
Fisherman's Widow, The - 23
Fishuthes - 47
Foggy Dew, The - 32
Fox and His Wife, The - 62
Geese in the bogs, The - 79
Georgie the dotard - 52
Girl of the Big House, The - 55
Green Fields of America, The - 80
Green Meadow, The - 14
Handle Bar Mustache, The - 86
Hope - 1
Humor of Ballydehob, The - 24
%%endtext

%%newpage

%%begintext
Humors of the Joyce Country, The - 57
Island under some blue - 77
Johnny Docherty's - 72
Johnny Doyle - 50
Jolly Beggarman, The - 40
Jolly Little Beggarman, The - 43
Kesh Jig, The - 75
Kitty Clover - 53
Lilting Walk, A - 78
Little Beggarman, The - 43
Loosing Space - 86
Luck Penny, The - 25
Maggie in the woods - 28
Maid Behind the Bar, The - 68
Maid at the Well, The - 64
Marcelle Du Champ's Jig - 87
Masons Apron, The - 67
Miss Monroe's Jig - 22
Morning Star, The - 7
Munster cloak, The - 8
New Potatoes, The - 34
New Year's Song - 56
No Count Know How - 88
O'Carolan's Draught - 29
Off To California - 18
One Wife is Enough for Me - 38
Otter's Holt, The - 71
Paddy O'Rafferty - 12
Peggy on the settle - 53
Pipe on the Hob, The - 85
Piper's Picnic, The - 83
Planxty Connor - 31
Pretty Peg - 6
R\'ealt na Maidne - 7
Red Haired Boy, The - 43
Red Headed Irishman, The - 43
Return from Fingal, The - 41
Rocky Road to Dublin, The - 44
Romantic Kerryman, The - 39
Rose in the Heather - 73
Rumpy Ditty, A - 45
Shandon Bells - 81
Silver Spear, The - 69
Smash the Windows - 11
Stack of Wheat, The - 15
Stimpy Thump, A - 46
Stranger in Cork, A - 58
Strayaway Child, The - 13
Teetotalers Reel - 76
Thinking on the train - 27
%%endtext

%%newpage

%%begintext
Threshing the Barley - 10
Tradition's Echo, A - 46
Water is Wide, The - 4
Yellow Flail, The - 65
aerideact na bpiobairi - 83
an doctur ua neill - 82
clang sean-duin - 81
%%endtext

%%newpage

